X:47
T:47 Unititled Polka
C:Welch MS
I:abc2nwc
M:2/4
L:1/16
K:G
D2|G2G2 A2A2|BABc d2d2|c2c2 B2B2|AGAB A2D2|
G2G2 A2A2|BABc d2dc|B2B2 AGAB|G6:|
f2|d2c2 B2e2|d4c2c2|c2B2 A2d2|c4B2D2|
G2G2 A2A2|BABc d2dc|B2B2 AGAB|G6:|

